X:126
T:Run, Let The Bulgine Run
M:C
L:1/8
K:F
c2A2|\
F2F2 (FG)AB|(c2B2) G4|G2GG G2A2|B6 z2|
A2A2 F4|B2B2 d4|A2AA G2c2|F4||
